svgs/sharp-light/comment-code.svg

<svg xmlns="http://www.w3.org/2000/svg" viewBox="0 0 512 512"><!--! Font Awesome Pro 7.1.0 by @fontawesome - https://fontawesome.com License - https://fontawesome.com/license (Commercial License) Copyright 2025 Fonticons, Inc. --><path fill="currentColor" d="M81.5 396.9l7.1-17.5-11.9-14.7C48.5 329.8 32 286.6 32 240 32 127 130.3 32 256 32s224 95 224 208-98.3 208-224 208c-32.6 0-63.4-6.4-91.2-18l-11.2-4.6-11.5 3.9-85.9 29.5 25.2-62zM0 512c14.8-5.1 65.6-22.6 152.5-52.4 31.6 13.1 66.7 20.4 103.5 20.4 141.4 0 256-107.5 256-240S397.4 0 256 0 0 107.5 0 240C0 294.4 19.3 344.6 51.8 384.8 24.7 451.5 7.4 493.9 0 512zM219.3 187.3l11.3-11.3-22.6-22.6-11.3 11.3-64 64-11.3 11.3 11.3 11.3 64 64 11.3 11.3 22.6-22.6c-.6-.6-22-22-64-64l52.7-52.7zm96-22.6l-11.3-11.3-22.6 22.6 11.3 11.3 52.7 52.7-52.7 52.7-11.3 11.3 22.6 22.6 11.3-11.3 64-64 11.3-11.3-11.3-11.3-64-64z"/></svg>

<svg xmlns="http://www.w3.org/2000/svg" viewBox="0 0 512 512"><!--! Font Awesome Pro 6.7.2 by @fontawesome - https://fontawesome.com License - https://fontawesome.com/license (Commercial License) Copyright 2024 Fonticons, Inc. --><path d="M86.9 382l7.2-19.3L79.6 348.2C49.1 317.6 32 279.9 32 240c0-91.3 93.8-176 224-176s224 84.7 224 176s-93.8 176-224 176c-28.4 0-55.5-4.2-80.3-11.7l-9.2-2.8-9.3 2.8L68.6 430.8 86.9 382zM16 480l38.5-11.6 111.9-33.6c27.9 8.5 58.1 13.1 89.6 13.1c141.4 0 256-93.1 256-208S397.4 32 256 32S0 125.1 0 240c0 49.6 21.3 95.1 56.9 130.8L30.1 442.4 16 480zM219.3 187.3L230.6 176 208 153.4l-11.3 11.3-64 64L121.4 240l11.3 11.3 64 64L208 326.6 230.6 304l-11.3-11.3L166.6 240l52.7-52.7zm96-22.6L304 153.4 281.4 176l11.3 11.3L345.4 240l-52.7 52.7L281.4 304 304 326.6l11.3-11.3 64-64L390.6 240l-11.3-11.3-64-64z"/></svg>
